!! "Illustrious War-might", (court dance suite) No. 32 from Jonathan Condit,
!! 'Music of the Korean Renaissance; Songs and dances of the fifteenth century',
!! London: Cambridge University Press, 1984, ISBN 0 521 24399 8; pp.102-104
!! pluck	wind	voice
!! str.
**kern	**kern	**kern
*M12/8	*M12/8	*M12/8
=1	=1	=1
4r	4r	4r
8AA	[{8A	[8A
8AA	4.A]	4A]
8AA	.	.
8AA	.	{8A
4C	[4.c	4c}
8C	.	[8c
8C	4c_	4c]
8C	.	.
12C	12c]	{12c
24E	[24e	[24e
=2	=2	=2
4E	4.e_	4e}]
8E	.	[{8e
4E	4e]	4e]
8D	[8d	[8d
4D	2.d]	2.d]
8D	.	.
4D	.	.
8D	.	.
=3	=3	=3
8D	8d}	8d}
8G	{8g	{8g
8E	8e	8e
4G	[4.g	4g}
8G	.	[{8g
8G	8g]	8g]
8A	[4a	8a}
8A	.	[{8a
8A	8a]	8a]
8G	[4g	8g}
8G	.	[{8g
=4	=4	=4
8G	8g]	8g]
8D	8d	8d}
8E	[8e	[{8e
8E	8e]	8e]
8G	[4g	[4g
8G	.	.
4G	2.g_	2.g_
8G	.	.
4G	.	.
8G	.	.
=5	=5	=5
8G	8g}]	8g}]
8E	{8e	{8e
8A	[8a	[8a
8A	4.a_	4a}]
8A	.	.
8A	.	[{8a
8A	8a]	8a]
8c	[4cc	8cc}
8c	.	[{8cc
8c	8c]	8cc]
8A	4a	8a}
8A	.	{8a
=6	=6	=6
4G	[4.g	4g}
8G	.	[{8g
4G	4g]	4g]
8E	[8e	[8e
4E	2.e_	2.e_
8E	.	.
4E	.	.
8E	.	.
=7	=7	=7
8E	8e}]	8e}]
8D	{8d	{8d
8G	[8g	[8g
4G	4.g]	4g}]
8G	.	{8g
4E	2.e	4e}
8E	.	[8e
8E	.	4e]
8E	.	.
8E	.	{8e
=8	=8	=8
8D	8d	8d
8E	[4e	8e}
8E	.	[{8e
8E	8e]	8e]
8D	[4d	[4d
8D	.	.
4D	2.d_	2.d_
8D	.	.
4D	.	.
8D	.	.
=9	=9	=9
8D	8d}]	8d}]
8G	{8g	{8g
8c	[8cc	[8cc
8c	8cc]	8cc]
8A	[4a	8a}
8A	.	[8a
4A	4.a_	4a]
8A	.	[{8a
8A	8a]	8a]
8G	[4g	8g}
8G	.	[{8g
=10	=10	=10
8G	8g]	8g]
8A	8a	8a}
8c	[8cc	[{8cc
4c	4cc]	4cc]
8A	[8a	[8a
4A	2.a_	2.a_
8A	.	.
4A	.	.
8A	.	.
=11	=11	=11
8A	8a}]	8a}]
8A	{8a	{8a
12G	12g	12g
24E	24e	24e
4G	4.g	4g}
8G	.	{8g
8E	8e	8e
8D	8d	8d}
8C	8c	{8c
4D	4d	4d}
8C	8c	{8c
=12	=12	=12
4D	4d	4d}
8E	[8e	[{8e
8E	8e]	8e]
8G	[4g	[4g
8G	.	.
4G	2.g_	2.g_
8G	.	.
4G	.	.
8G	.	.
=13	=13	=13
8G	8g}]	8g}]
8c	[{4cc	[{4cc
8c	.	.
8c	8cc]	8cc]
8A	[4a	8a
8A	.	[8a
4A	4.a_	4a]
8A	.	[8a
4A	4a]	4a]
12G	12g	{12g
24E	24e	24e
=14	=14	=14
4G	[4.g	4g}
8G	.	[{8g
4G	4g]	4g]
8E	[8e	[8e
4E	2.e_	2.e_
8E	.	.
4E	.	.
8E	.	.
=15	=15	=15
8E	8e}]	8e}]
8D	{8d	{8d
12C	12c	12c
24D	24d	24d
8E	8e	8e
8G	[4g	8g}
8G	.	[{8g
8G	8g]	8g]
8E	[4e	8e}
8E	.	[8e
4E	4.e]	4e]
8E	.	{8e
=16	=16	=16
4D	[4d	4d}
12D	12d]	{12d
24C	24c	24c
4D	4d	4d
8C	[8c	[8c
4C	2.c_	2.c_
8C	.	.
4C	.	.
8C	.	.
=17	=17	=17
8C	8c}]	8c}]
8c	{8cc	{8cc
8d	[8dd	[8dd
4d	4.dd]	4dd]
8d	.	{8dd
4c	[4.cc	4cc}
8c	.	[{8cc
8c	8cc]	8cc]
8A	[4a	8a}
8A	.	[{8a
=18	=18	=18
8A	8a]	8a]
8G	[4g	8g}
8G	.	[{8g
8G	8g]	8g]
8c	[4cc	[4cc
8c	.	.
4c	2.cc_	2.cc_
8c	.	.
4c	.	.
8c	.	.
=19	=19	=19
8c	8cc}]	8cc}]
8A	[{4a	[{4a
8A	.	.
8A	8a]	8a]
8c	[4cc	8cc}
8c	.	[8cc
4c	4cc]	4cc]
8A	[8a	[{8a
8G	4g]	8g}]
8G	.	{8g
=20	=20	=20
8E	8e	8e
8D	4d	8d}
8D	.	{8d
4E	4e	4e
8G	[8g	[8g
4G	2.g_	2.g_
8G	.	.
4G	.	.
8G	.	.
=21	=21	=21
8G	8g}]	8g}]
8E	{8e	{8e
8G	8g	8g
4A	4.a	4a}
8A	.	{8a
4G	[4.g	4g}
8G	.	[{8g
8G	8g]	8g]
8E	[4e	8e}
8E	.	[{8e
=22	=22	=22
8E	8e]	8e]
8G	[4g	8g}
8G	.	[{8g
8G	8g]	8g]
8E	[4e	[4e
8E	.	.
4E	2.e_	2.e_
8E	.	.
4E	.	.
8E	.	.
=23	=23	=23
8E	8e}]	8e}]
8G	{4g	{4g
8G	.	.
4A	4.a	4a}
8A	.	{8a
8G	8g	8g
8E	8e	8e}
8G	[8g	[{8g
8G	8g]	8g]
8E	4e	8e}
8E	.	{8e
=24	=24	=24
4D	4.d	4d}
8D	.	{8d
4C	4c	4c
8AA	[8A	[8A
4AA	2.A_	2.A_
8AA	.	.
4AA	.	.
8AA	.	.
=25	=25	=25
4AA	4A}]	4A}]
====	====	====
*-	*-	*-
